!!!OTL: 289. Zufriedenheit.
!!!COM: Ch. G. Reefe
!!!ODT: 1776
!!!ARE: Europa, Mitteleuropa, Deutschland
!!!SCT: B0289
!!!TXL: @@DE
!!!YEM: Copyright 1995, estate of Helmut Schaffrath.
**kern	**text
*ICvox	*
*Ivox	*
*M4/4	*
*met(c)	*
*clefG2	*
*k[b-]	*
*F:	*
!LO:TX:a:t=Mäßig langſam. 	!
{4c	Was
=1	=1
4.f	frag
8a	ich
4cc	viel
4a	nach
=2	=2
4.g	Geld
8b-	und
4a}	Gut,
{4ff	wenn
=3	=3
4ee	ich
4dd	ʒu-
4cc	-frie-
4bn	-den
=4	=4
2cc	bin!
4r}	.
{4c	Giebt
=5	=5
4.f	Gott
8a	mir
4cc	nur
4a	ge-
=6	=6
4.g	-ſun-
8b-	-des
4a}	Blut,
{4ff	ſo
=7	=7
4ee	hab'
4dd	ich
4cc	froh-
4bn	-en
=8	=8
2cc	Sinn
4r}	.
{4cc	und
=9	=9
4.cc	ſing'
8dd	aus
4b-	dank-
4b-	-ba-
=10	=10
4.b-	-rem
8cc	Ge-
4a}	-müth
{4f	mein
=11	=11
2b-	Morgen
2a	.
=12	=12
2.dd	und
8ccL	mein
8b-J	.
=13	=13
2a	A-
2g	-bend-
=14	=14
2f	-lied.
4r}	.
==	==
!!!AGN: Stimmungs - Lied, Freude, Zufriedenheit
!!!GTL: Lieder der Freude und Geseligkeit
!!!ONB: ESAC (Essen Associative Code) Database: BOEHME
!!!AMT: simple quadruple
!!!AIN: vox
!!!EED: Helmut Schaffrath
!!!EEV: 1.0
!!Chriſt. Gottlob Reefe. 1776.
!!@@COMMENT:"Gedicht von J. Martin Miller 1776. Ʒuerſt im Voſſ. Muſenalm. für 1777 S. 10. Die
!!gleichʒeitig mit erſchienene Melodie, die noch heute im Volksmunde fortlebt, iſt von Chriſtian Gottlob
!!Reefe. Noch andere Melodien giebts daʒu, u. A. eine von Moʒart, doch keine hat ſich volksthüm-
!!lich gemacht, wie die hier ſtehende."
!!@@END:
!!!Text: J. M. Miller
!!!URL-scan: https://archive.org/details/BoehmeVtLieder1895/page/n243/mode/2up
!!!ENC: Anna Maria Matuszewska
!!!EEV: 2024/03/07
*-	*-
